Numix/64/mimetypes/application-font.svg

<?xml version="1.0" encoding="UTF-8" standalone="no"?>
<svg
   xmlns:dc="http://purl.org/dc/elements/1.1/"
   xmlns:cc="http://creativecommons.org/ns#"
   xmlns:rdf="http://www.w3.org/1999/02/22-rdf-syntax-ns#"
   xmlns:svg="http://www.w3.org/2000/svg"
   xmlns="http://www.w3.org/2000/svg"
   xmlns:sodipodi="http://sodipodi.sourceforge.net/DTD/sodipodi-0.dtd"
   xmlns:inkscape="http://www.inkscape.org/namespaces/inkscape"
   width="64px"
   height="64px"
   viewBox="0 0 64 64"
   version="1.1"
   id="svg2"
   inkscape:version="0.91 r13725"
   sodipodi:docname="application-font.svg">
  <metadata
     id="metadata17">
    <rdf:RDF>
      <cc:Work
         rdf:about="">
        <dc:format>image/svg+xml</dc:format>
        <dc:type
           rdf:resource="http://purl.org/dc/dcmitype/StillImage" />
      </cc:Work>
    </rdf:RDF>
  </metadata>
  <defs
     id="defs15" />
  <sodipodi:namedview
     pagecolor="#ffffff"
     bordercolor="#666666"
     borderopacity="1"
     objecttolerance="10"
     gridtolerance="10"
     guidetolerance="10"
     inkscape:pageopacity="0"
     inkscape:pageshadow="2"
     inkscape:window-width="1920"
     inkscape:window-height="1013"
     id="namedview13"
     showgrid="false"
     inkscape:zoom="3.6875"
     inkscape:cx="-2.9830508"
     inkscape:cy="32"
     inkscape:window-x="0"
     inkscape:window-y="27"
     inkscape:window-maximized="1"
     inkscape:current-layer="svg2" />
  <path
     inkscape:connector-curvature="0"
     id="path5"
     d="M 10.671875,0 C 9.296875,0 8,1.355469 8,2.789062 L 8,61.210938 C 8,62.566406 9.375,64 10.671875,64 l 42.65625,0 C 54.625,64 56,62.566406 56,61.210938 L 56,18 38,0 Z m 0,0"
     style="fill:#dcdcdc;fill-opacity:1;fill-rule:nonzero;stroke:none" />
  <path
     inkscape:connector-curvature="0"
     id="path7"
     d="m 42,18 14,14 0,-14 z m 0,0"
     style="fill:#000000;fill-opacity:0.19607801;fill-rule:nonzero;stroke:none" />
  <path
     inkscape:connector-curvature="0"
     id="path9"
     d="M 38,0 55.984375,18 40.757812,18 C 39.410156,18 38,16.574219 38,15.226562 Z m 0,0"
     style="fill:#ffffff;fill-opacity:0.39215698;fill-rule:nonzero;stroke:none" />
  <path
     inkscape:connector-curvature="0"
     id="path11"
     d="m 40.859375,20 -1.894531,22.773438 c -0.09766,1.066406 -0.148438,1.765624 -0.148438,2.101562 0,0.53125 0.09766,0.949219 0.277344,1.230469 0.230469,0.394531 0.542969,0.679687 0.9375,0.867187 0.402344,0.191406 1.074219,0.28125 2.019531,0.28125 L 41.851562,48 l -9.8125,0 0.207032,-0.746094 0.425781,0 c 0.796875,0 1.445313,-0.1875 1.945313,-0.566406 0.351562,-0.253906 0.628906,-0.671875 0.828124,-1.273438 0.128907,-0.417968 0.261719,-1.394531 0.386719,-2.945312 L 36.117188,39 l -7.121094,0 -2.535156,3.773438 c -0.574219,0.84375 -0.933594,1.460937 -1.082032,1.839843 -0.148437,0.359375 -0.222656,0.703125 -0.222656,1.023438 0,0.433593 0.164062,0.804687 0.476562,1.117187 0.320313,0.300782 0.84375,0.476563 1.582032,0.5 L 27.011719,48 l -7.359375,0 0.195312,-0.746094 c 0.910156,-0.04297 1.707032,-0.371094 2.390625,-0.984375 C 22.933594,45.636719 23.96875,44.292969 25.34375,42.25 l 14.875,-22.25 0.640625,0 m -3.632813,6.71875 -7.222656,10.804688 6.261719,0 0.960937,-10.804688"
     style="fill:#555555;fill-opacity:1;fill-rule:nonzero;stroke:none" />
</svg>

<svg xmlns="http://www.w3.org/2000/svg" viewBox="0 0 64 64">
 <path d="m 10.672 0 c -1.375 0 -2.672 1.355 -2.672 2.789 l 0 58.42 c 0 1.355 1.375 2.789 2.672 2.789 l 42.656 0 c 1.297 0 2.672 -1.434 2.672 -2.789 l 0 -43.21 -18 -18 m -27.328 0" style="fill:#dcdcdc;fill-opacity:1;stroke:none;fill-rule:nonzero"/>
 <path d="m 42 18 14 14 0 -14 z m 0 0" style="fill:#000;fill-opacity:0.196;stroke:none;fill-rule:nonzero"/>
 <path d="m 38 0 17.984 18 -15.227 0 c -1.348 0 -2.758 -1.426 -2.758 -2.773 m 0 -15.227" style="fill:#fff;fill-opacity:0.392;stroke:none;fill-rule:nonzero"/>
 <path d="m 40.859 20 -1.895 22.773 c -0.098 1.066 -0.148 1.766 -0.148 2.102 0 0.531 0.098 0.949 0.277 1.23 0.23 0.395 0.543 0.68 0.938 0.867 0.402 0.191 1.074 0.281 2.02 0.281 l -0.199 0.746 l -9.813 0 0.207 -0.746 0.426 0 c 0.797 0 1.445 -0.188 1.945 -0.566 0.352 -0.254 0.629 -0.672 0.828 -1.273 0.129 -0.418 0.262 -1.395 0.387 -2.945 l 0.285 -3.469 l -7.121 0 -2.535 3.773 c -0.574 0.844 -0.934 1.461 -1.082 1.84 -0.148 0.359 -0.223 0.703 -0.223 1.023 0 0.434 0.164 0.805 0.477 1.117 0.32 0.301 0.844 0.477 1.582 0.5 l -0.203 0.746 l -7.359 0 0.195 -0.746 c 0.91 -0.043 1.707 -0.371 2.391 -0.984 c 0.695 -0.633 1.73 -1.977 3.105 -4.02 l 14.875 -22.25 0.641 0 m -3.633 6.719 -7.223 10.805 6.262 0 0.961 -10.805" style="fill:#555;fill-opacity:1;stroke:none;fill-rule:nonzero"/>
</svg>
